icons/svg/border-all.svg

<svg width="24" height="24" viewBox="0 0 24 24" fill="none" xmlns="http://www.w3.org/2000/svg">
<path d="M12 20.25H16.25C18.4591 20.25 20.25 18.4591 20.25 16.25V12M12 20.25H7.75C5.54086 20.25 3.75 18.4591 3.75 16.25V12M12 20.25V3.75M12 3.75H7.75C5.54086 3.75 3.75 5.54086 3.75 7.75V12M12 3.75H16.25C18.4591 3.75 20.25 5.54086 20.25 7.75V12M3.75 12H20.25" stroke="currentColor" stroke-width="1.5" stroke-linecap="round" stroke-linejoin="round"/>
</svg>

<svg xmlns="http://www.w3.org/2000/svg" width="24" height="24" fill="none" viewBox="0 0 24 24"><path stroke="currentColor" stroke-linecap="round" stroke-linejoin="round" stroke-width="1.5" d="M12 20.25h4.25a4 4 0 0 0 4-4V12M12 20.25H7.75a4 4 0 0 1-4-4V12M12 20.25V3.75m0 0H7.75a4 4 0 0 0-4 4V12M12 3.75h4.25a4 4 0 0 1 4 4V12m-16.5 0h16.5"/></svg>
